themes/asg/static/images/icons/arrows-speakers.svg

<svg width="244" height="241" viewBox="0 0 244 241" fill="none" xmlns="http://www.w3.org/2000/svg">
<path d="M34.0593 240.002L0.00038147 240.002L0.00038106 223.335L50.0018 223.335L34.0593 240.002Z" fill="#0000FF"/>
<path d="M0.000365898 205.942L0.000365229 240.001L16.6675 240.001L16.6675 190L0.000365898 205.942Z" fill="#0000FF"/>
<path d="M208.943 1.0021e-06L243.002 3.14295e-06L243.002 16.6672L193 16.6672L208.943 1.0021e-06Z" fill="#FA1100"/>
<path d="M243.002 34.0595L243.002 0.00050354L226.335 0.000501755L226.335 50.002L243.002 34.0595Z" fill="#FA1100"/>
<path d="M0.000243666 34.276L0.000242653 0.217056L16.6674 0.217056L16.6674 50.2185L0.000243666 34.276Z" fill="black"/>
<path d="M34.0596 0.217041L0.00062561 0.21704L0.000625369 16.8842L50.0021 16.8842L34.0596 0.217041Z" fill="black"/>
<path d="M243.002 206.159L243.002 240.218L226.335 240.218L226.335 190.217L243.002 206.159Z" fill="#00FF00"/>
<path d="M208.942 240.218L243.001 240.218L243.001 223.551L193 223.551L208.942 240.218Z" fill="#00FF00"/>
</svg>

<svg width="244" height="241" fill="none" xmlns="http://www.w3.org/2000/svg"><path d="M34.06 240.002H0v-16.667h50.002l-15.943 16.667z" fill="#00F"/><path d="M0 205.942v34.059h16.668V190L0 205.942z" fill="#00F"/><path d="M208.943 0h34.059v16.667H193L208.943 0z" fill="#FA1100"/><path d="M243.002 34.06V0h-16.667v50.002l16.667-15.943z" fill="#FA1100"/><path d="M0 34.276V.217h16.667V50.22L0 34.276z" fill="#000"/><path d="M34.06.217H0v16.667h50.002L34.06.217z" fill="#000"/><path d="M243.002 206.159v34.059h-16.667v-50.001l16.667 15.942z" fill="#0F0"/><path d="M208.942 240.218h34.059v-16.667H193l15.942 16.667z" fill="#0F0"/></svg>
